X:1
T:Évit Gabriel variations
R:reel
Z:transcribed to ABC by Debby Knight
M:C|
L:1/8
K:Em
"Var 1""Em"EFGF E4 | EFGF E4 |"Am"cBAG F4 |"B7"BAG2 F4 |"Em"EFGF E4|
EFGA B4 |1 "Am"cBAG "B7"F4 | "Em"EGFD E4 :|[2 "Am"cBAG "B7"FBGF | "Em"E2E2F2G2||
%%vskip .2cm
"Var 2""Am7"c8- | "D7"c2 D2E2F2| "GMaj7"B3B- B4- | "CMaj7"B2 C2D2E2 |"F#ø7"A8- | "B7"A2B,2^C2^D2 | "Em"G8|z2 E2F2G2 |
"Am7"c8- | "D7"c2 D2E2F2| "GMaj7"B3B- B4- | "CMaj7"B2 C2D2E2 |"F#ø7"A8- | "B7"A2F2A2G2 | "Em"E8 | "Am"cBAG "B7"F4 ||
%%vskip -.5cm
%%begintext ragged
$1(F#ø7 is an F# half-diminished 7th chord, a
diminished 7th chord
with the seventh raised a half-tone.)
%%endtext
"Var 3""Em"EFGF E4 | EFGAB4 |"Am"cBAG F4 |"B7"BAGB F4 |
"Em"EFGF E4 | EFGA B4 |"Am"cBAG "B7"FBGF | "Em"EGFD E4|
"Em"EFGF E4|"Em/D#"EFGF E4|"Em/D"EFGF E4|"Em/C#"EFGF E4|
"Em/C"EFGF E4|"Em/B"EFGF Ez z2 |"No chord"cBAG FBGF |G2F2 E4||
%%begintext ragged
From here we go to the B part of Évit Gabriel, which is printed on the top of the next page.  Then we play Évit Gabriel straight a few times.
%%endtext ragged
